X:1
T:Panis Angelicus
T:Cesar Franck (1872)
T:St. Thomas Aquinas (1225 - 1274)
T:Panis Angelicus
T:(from "Messe à trois voix")
C:Cesar Franck
C:(1872)
Z:St. Thomas Aquinas
Z:(1225 - 1274)
%%score [ 1 ( 2 3 ) ] { ( 4 5 8 ) | ( 6 7 ) }
L:1/8
Q:1/4=60
M:4/4
K:G
V:1 treble nm="Soprano Solo"
V:2 treble transpose=-12 nm="Tenor Solo"
V:3 treble transpose=-12 
V:4 treble nm="P3"
V:5 treble 
V:8 treble 
V:6 bass 
V:7 bass 
V:1
"^Poco Lento" z8 | z8 | z8 | z8 | z8 | z8 | z8 | z8 | z8 | z8 | z8 | z8 | %12
w: ||||||||||||
"^Soprano Solo"!mp!"^dolce" B4 B2 A2 | A>G G2 z4 | B4 B2 A2 | A>G G2 z4 | e4 e2 d2 | %17
w: Pa- nis an-|ge- li- cus|fit pa- nis|ho- mi- num,|dat pa- nis|
"^S." c3 c c2 B2 | A3 A A2 G2 | d8 | z8 | z8 | z8 | z8 | z8 | z8 | z8 | z8 | z8 | z8 | z8 | z8 | %32
w: coe- li- cus fi-|gu- ris ter- mi-|num:|||||||||||||
 z8 | z8 | z8 | z8 |"^S."!mp!"^dolce" B4 B2 A2 | A>G G2 z4 | B4 B2 A2 | A>G G2 z4 | e4 e2 d2 | %41
w: ||||Pa- nis an-|ge- li- cus|fit pa- nis|ho- mi- num;|dat pa- nis|
"^S." c3 c c2 B2 | A3 A A2 G2 | d4!mf! z4 | d4 c2 B2 |"^S." B>A A2 z4 | d4 e2 c2 | B>A A2 z4 | %48
w: coe- li- cus fi-|gu- ris ter- mi-|num:|O res mi-|ra- bi- lis!|man- du- cat|Do- mi- num|
!f! (d4- dB) (AG) |"^S." (c3 A) B2 B2- | B2 AG A3 B | G4 z4 |!ff! (e4- ec) (BA) | %53
w: pau- * * per, *|pau- * per, ser-|* vus et hu- mi-|lis,|pau- * * per, *|
"^S." (d3 B) c2 c2- |"^rit." c2!>(! (Ac)"^dim." B2 A!>)!G |"^rit."!p! A4- A3 G |"^a tempo" G4 z4 | %57
w: pau- * per, ser-|* vus, * ser- vus et|hu- * mi-|lis.|
 z8 |"^rit." z8 | z8 | z8 |] %61
w: ||||
V:2
 z8 | z8 | z8 | z8 | z8 | z8 | z8 | z8 | z8 | z8 | z8 | z8 |"^Tenore Solo" z8 | z8 | z8 | z8 | z8 | %17
w: |||||||||||||||||
w: |||||||||||||||||
"^T." z8 | z8 |!mp! z8 |"^dolce" B4 B2 A2 | A>G G2 z4 | d4 d2 ^c2 |"^T." ^c>B B2 z4 | %24
w: |||O res mi-|ra- bi- lis!|man- du- cat|Do- mi- num|
w: |||||||
"^cresc." B4 A2 z2 |!<(! d4 A2!<)! z2 |!f! e2 GA B3 G | F4 z4 |!p! B4 F2 z2 | %29
w: pau- per,|pau- per|ser- vus et hu- mi-|lis,|pau- per,|
w: |||||
"^T."!<(! (=c3 A) G2!<)! z2 |!f! ^c2 de B3 c | d4 z4 | z8 | z8 | z8 | z8 |"^T."!mp! z8 | B4 B2 A2 | %38
w: pau- * per|ser- vus et hu- mi-|lis.||||||Pa- nis an-|
w: |||||||||
 A>G G2 z4 | B4 B2 A2 | A>G G2 z4 |"^T." e4 e2 d2 | c3 c c2 B2 | A3 A A2 G2 | d4 z4 | %45
w: ge- li- cus|fit pa- nis|ho- mi- num;|dat pa- nis|coe- li- cus fi-|gu- ris ter- mi-|num:|
w: |||||||
"^T."!mf! d4 c2 B2 | B>A A2 z4 | d4 e2 c2 | B>A A2 z4 |"^T."!f! (d4- dB) (AG) | c4 cdcd | B4 z4 | %52
w: O res mi-|ra- bi- lis!|man- du- cat|Do- mi- num|pau- * * per *|||
w: |||||ser- vus et hu- mi-|lis,|
 z8 |"^T."!ff! (e4- ec) (BA) | d4"^dim." d2!p! B2 | (d4 c3) B | B4 z4 | z8 | z8 | z8 | z8 |] %61
w: |pau- * * per, *|ser- vus et|hu- * mi-|lis.|||||
w: |||||||||
V:3
 x8 | x8 | x8 | x8 | x8 | x8 | x8 | x8 | x8 | x8 | x8 | x8 | x8 | x8 | x8 | x8 | x8 | x8 | x8 | %19
w: |||||||||||||||||||
 x8 | x8 | x8 | x8 | x8 | x8 | x8 | x8 | x8 | x8 | x8 | x8 | x8 | x8 | x8 | x8 | x8 | x8 | x8 | %38
w: |||||||||||||||||||
 x8 | x8 | x8 | x8 | x8 | x8 | x8 | x8 | x8 | x8 | x8 | x8 | E2 EE F3 F | G4 x4 | x8 | x8 | %54
w: ||||||||||||ser- vus et hu- mi-|lis.|||
 F4 G2 E2 | F4- F3 G | G4 x4 | x8 | x8 | x8 | x8 |] %61
w: |||||||
V:4
!p!"^Poco Lento" (G4 G2 F2 | F>E E4) (e2 | d2 cB A2 B2 | G4 F)(BcA | G2 FE D2 G2 | A4- A)(BcA | %6
 G2 FE D2 GB | A4-!<)!!<(! A)(dec | B4- B)(BdB | A4- A)(BcE |!>(! G2 FE D2 GB!>)! | A3 G G2) z2 | %12
!p! G4 F4 | G8 | G4 F4 | G8 | e6 d2 | c6 B2 | A6 G2 | d8 | D4 F4 | G4 B4- | B4 ^A4 | B8- | B4 A4 | %25
 d4 A4 | G8 | F8 |!p! F4 B4 | A4 G4- | G4 G4 | F4 z4 |!mf! ^c2 de B2 c2 | d2 ef ^c2 d2 | %34
!<(! e2 fg!>)!!>(! f2 e2!<)! |"^dim." d6 =c2 |!p! B2 z2 z4 | B4 B2 A2 | A>G G2 z4 | B4 B2 A2 | %40
 A>G G6 |!mf! e4 e2 d2 | c3 c c2 B2 | A3 A A2 G2 |!mf! d4 z4 | d4 c2 B2 | B>A A2 z4 | d4 e2 c2 | %48
 B>A A2 z4 | d4- dBAG | B2 AG A3 B | GFGB d^cd^d |!f! e4- e=cBA | d3 B c2 c2- | %54
 c2!>(! A"^dim."c B2 A!>)!G | A2 z2!mf! z4 | B,2 B,2 D2 C2 | C2 A,C B,2 A,G, | A,8 | %59
 G,2!p! ([B,DG]2 [DGB]2 [GBd]2 | [Bdg]2) z2 z4 |] %61
V:5
 B,8- | B,2 E4 E2- | E8 | D8- | D8- | D8- | D8- | [DF]2 [EG]2 [FA]4- | [FA]4 [EG]4- | [EG]4 C4 | %10
 B,8 | [CD-]4 [B,D]2 x2 | B,DB,D CDCD | B,DB,D z DB,D | B,DB,D CDCD | B,DB,D z DB,D | z GEG EGDG | %17
 z GCG CGB,G | z DA,D A,DG,D | x2 c6 | D4 CDCD | B,DB,D z DB,D | z DFD z EFE | z D^GD GDGD | %24
 z ^C=GC z CGC | z DFD z DFD | z G,^CG, EG,CG, | z F,^CF, EF,CF, | z F,B,F, z B,DB, | %29
 z A,=CA, z G,B,G, | z A,^CA, B,A,CA, | z (A,DA, DFAd) | A8 | A4 G2 F2 | G8 | %35
 F2!>(! G2 ^G2!>)! A2 | =GDB,D z DCD | z DB,D z DCD | z DB,D z DCD | z DB,D z =FB,F | %40
 z ECE z E z D | z GEG z [EG] z [DG] | z ECE z E z E | z DCD z DB,D | z FCF z ECE | z FCF z ECE | %46
 z FCF z ECE | z FCF z ECE | z FDF z GDG | z ADA z GDG | C4 z DCD | B,4 G4 | z ^GEG A2 E2 | %53
 z EDE z ECE | D8- | D4 C3 B, |[I:staff +1] G,2 G,2 G,4 | x8 | x8 | x8 | x8 |] %61
V:6
"^Organo/Piano" D,4 ^D,4 | E,8 | E,6 G,2 | B,4 A,4 | [G,B,]2 [A,C]2 [B,D]2 [G,B,]2 | %5
 [F,A,]2 [D,F,]2 [E,G,]2 [F,A,]2 | [G,B,]2 [A,C]2 B,2 G,2 | [D,C]8 | B,8 | A,4 E,4 | [D,G,]8 | %11
 F,4 G,2 z2 | D,8- | D,8- | D,8- | D,4 G,4 | C6 B,2 | G,8 | F,6 D,2 | %19
 [A,,A,]2 [F,,F,]2 [E,,E,]2 [D,,D,]2 | B,G,B,G, D,4 | [G,,D,]8 | F,8 | [=F,^G,]8 | [E,=G,]8 | %25
 [D,F,]8 |!f! [A,,E,]8 | [^A,,E,]8 | [B,,D,]8 | ^D,4 E,4- |"^cresc." E,4 D,2 E,2 | %31
!<(! D,4- D, z!<)! z2 | E4 D2 E2 | D2 A,6 | z2 ^C2 B,2 C2 | =C2 B,4 D2 | [G,,D,G,]4 [D,F,]4 | %37
 [G,,D,G,]4 [D,F,]4 | [G,,D,G,]4 [D,F,]4 |"^cresc." [G,,D,G,]8 | G,8- | G,8 | [G,A,]6 [G,B,]2 | %43
 F,4 G,4 | A,4 G,4 | A,4 G,4 | A,4 G,4 | A,4 G,4 | A,4 G,4 | A,4 B,4 | E,4 F,4 | %51
!<(! G,4!<)! [D,-G,B,-]4 | [D,^G,B,]4 [C,A,]4 | B,4 A,4 | F,4 G,4 | F,2 z2 z4 | G,2 G,2 G,4 | %57
 F,4 G,4 | G,4 F,4 | G,,2 G,6- | G,2 z2 z4 |] %61
V:7
 G,,8 | G,,4 ^G,,4 | A,,3 B,, C,2 ^C,2 | D,8- | D,8- | D,8- | D,8- | x8 | ^D,4 E,2 B,,2 | %9
 C,4 A,,4 | x8 | D,4 G,,2 x2 | G,,4 D,4 | G,,4 D,4 | G,,4 D,4 | G,,4 G,4 | G,8 | E,6 D,2 | %18
 C,6 B,,2 | x8 | [G,,D,-]4 D,4- | x8 | F,,4 F,4 | x8 | x8 | x8 | x8 | x8 | x8 | B,,4 E,,4 | A,,8 | %31
 x8 | A,6 G,2 | F,4 E,2 D,2 | A,8 | A,2 G,2 ^E,2 F,2 | x8 | x8 | x8 | x8 | C,4 C,2 B,,2 | %41
 A,,6 B,,2 | C,6 ^C,2 | D,8- | D,8- | D,8- | D,8- | D,8 | C,4 B,,4 | F,4 G,4 | D,8 | x8 | x8 | %53
 ^G,4 A,4 | D,8 | D,2 x2 x4 | G,4 F,2 E,2 | _E,2 D,2 G,,2 B,,2 | C,4 D,4 | x8 | x8 |] %61
V:8
 x8 | x8 | x8 | x8 | x8 | x8 | x8 | x8 | x8 | x8 | x8 | x8 | x8 | x8 | x8 | x8 | x8 | x8 | x8 | %19
 FDAD GDFD | x8 | x8 | x8 | x8 | x8 | x8 | x8 | x8 | x8 | x8 | x8 | x8 | x8 | x8 | x8 | x8 | x8 | %37
 x8 | x8 | x8 | x8 | x8 | x8 | x8 | x8 | x8 | x8 | x8 | x8 | x8 | x8 | x8 | x8 | x8 | x8 | x8 | %56
 x8 | x8 | x8 | x8 | x8 |] %61

